swiss/communes/0745.svg

<?xml version="1.0" encoding="UTF-8" standalone="no"?>
<!-- Created with Inkscape (http://www.inkscape.org/) -->
<svg
   xmlns:svg="http://www.w3.org/2000/svg"
   xmlns="http://www.w3.org/2000/svg"
   version="1.0"
   width="474.00491"
   height="567.99872"
   id="svg2">
  <defs
     id="defs4" />
  <g
     transform="translate(-159.5687,-198.1948)"
     id="layer1">
    <path
       d="M 164.62436,203.19388 L 627.19488,204.51301 L 628.51275,517.14888 C 631.14848,633.23307 549.44862,760.26159 395.25069,761.18952 C 251.61107,762.0539 161.98863,650.38187 164.62436,544.85078 L 164.62436,203.19388 z "
       style="fill:white;fill-opacity:1;fill-rule:evenodd;stroke:black;stroke-width:9.9981184;stroke-linecap:butt;stroke-linejoin:miter;stroke-miterlimit:4;stroke-dasharray:none;stroke-opacity:1"
       id="path1900" />
    <path
       d="M 556.87007,471.40527 L 556.2464,363.40664 C 553.12806,338.43585 553.76158,253.63175 387.23274,254.15947 C 240.04739,254.15947 239.42374,337.18731 238.80007,348.42417 L 238.80007,369.02506 C 230.06873,369.64934 225.70306,378.99388 225.70306,389.00168 C 225.70306,399.61426 231.93974,403.98416 237.55274,405.2327 L 237.55274,449.55583 C 237.55274,449.55583 209.48773,453.92572 209.48773,465.78684 C 209.48773,478.89649 217.59541,484.51493 228.19774,483.89066 L 311.76907,483.89066 L 311.76907,503.86728 C 311.76907,503.86728 277.46741,504.49155 276.84374,530.71088 L 276.84374,584.39805 L 298.67207,584.39805 C 306.77974,583.14951 322.37141,590.01648 322.37141,600.00479 C 322.37141,610.61737 307.9958,618.74331 302.41407,620.60569 C 294.93006,623.10276 274.77987,636.21372 274.97273,650.57062 C 275.5964,688.65106 309.2744,697.39084 339.83407,695.51803 L 380.99607,695.51803 C 438.37341,691.77241 447.10473,583.14951 447.10473,583.14951 L 447.10473,468.28391 C 459.57807,468.28391 465.10947,477.67147 465.81473,488.26055 C 466.4384,497.62459 458.85118,507.6129 447.72841,506.98863 C 457.70708,506.98863 465.88766,518.85002 465.81473,525.71671 C 465.19106,535.08075 462.07273,545.69333 449.5994,546.31761 L 485.77207,595.6349 L 590.54807,595.6349 L 556.2464,548.19041 C 564.97774,547.56614 571.83807,536.95357 571.83807,526.96525 C 571.83807,515.08771 556.2464,507.6129 556.2464,507.6129 C 566.22507,506.36437 571.83807,497.00032 571.21441,488.26055 C 570.59233,479.54299 566.22507,472.02954 556.87007,471.40527 z "
       style="fill:black;fill-opacity:1;fill-rule:evenodd;stroke:white;stroke-width:4.9990592;stroke-linecap:butt;stroke-linejoin:miter;stroke-miterlimit:4;stroke-dasharray:none;stroke-opacity:1"
       id="path5485" />
    <path
       d="M 314.62803,404.62877 A 13.84687,13.84687 0 1 1 314.62693,404.62952"
       transform="matrix(0.999329,0,0,1.000295,69.07919,230.2362)"
       style="fill:white;fill-opacity:1;stroke:none;stroke-width:5;stroke-miterlimit:4;stroke-dasharray:none;stroke-opacity:1"
       id="path2793" />
    <path
       d="M 333.31104,477.5747 C 333.31104,477.5747 333.31104,488.12782 333.31104,498.68093 C 333.31104,509.23403 332.47228,516.90907 322.76813,517.14887 C 310.8382,517.45208 310.84731,516.48976 305.09673,517.20897 C 300.6377,517.76665 293.77511,518.468 292.45724,530.34026 C 291.13938,542.2125 292.45724,572.55269 292.45724,572.55269 C 292.45724,572.55269 287.18578,572.55269 309.58948,572.55269 C 331.99318,572.55269 338.5825,581.78666 338.5825,598.93547 C 338.5825,616.08426 334.33206,617.83915 317.49667,623.9991 C 306.02555,628.19631 300.27763,634.40328 296.41083,641.14789 C 291.87533,649.05888 291.469,665.10213 304.31802,675.4455 C 318.0962,686.53683 322.76813,685.99861 330.67531,687.31775"
       style="fill:none;fill-opacity:0.75;fill-rule:evenodd;stroke:white;stroke-width:4.9990592;stroke-linecap:butt;stroke-linejoin:miter;stroke-miterlimit:4;stroke-dasharray:none;stroke-opacity:1"
       id="path4595" />
    <path
       d="M 314.62803,404.62877 A 13.84687,13.84687 0 1 1 314.62693,404.62952"
       transform="matrix(0.999329,0,0,1.000295,47.3344,21.15274)"
       style="fill:white;fill-opacity:1;stroke:none;stroke-width:5;stroke-miterlimit:4;stroke-dasharray:none;stroke-opacity:1"
       id="path2789" />
    <path
       d="M 556.2224,465.70246 L 205.41128,465.70246"
       style="fill:none;fill-opacity:0.75;fill-rule:evenodd;stroke:white;stroke-width:6.25554371;stroke-linecap:butt;stroke-linejoin:miter;stroke-miterlimit:4;stroke-dasharray:none;stroke-opacity:1"
       id="path2815" />
    <path
       d="M 314.62803,404.62877 A 13.84687,13.84687 0 1 1 314.62693,404.62952"
       transform="matrix(0.999329,0,0,1.000295,88.84717,20.49318)"
       style="fill:white;fill-opacity:1;stroke:none;stroke-width:5;stroke-miterlimit:4;stroke-dasharray:none;stroke-opacity:1"
       id="path2791" />
    <path
       d="M 235.78905,405.02208 L 415.01866,405.02208 L 238.42478,369.40534"
       style="fill:none;fill-opacity:0.75;fill-rule:evenodd;stroke:white;stroke-width:4.9990592;stroke-linecap:butt;stroke-linejoin:miter;stroke-miterlimit:4;stroke-dasharray:none;stroke-opacity:1"
       id="path3708" />
    <path
       d="M 556.04034,469.65987 L 450.59084,469.65987"
       style="fill:none;fill-opacity:0.75;fill-rule:evenodd;stroke:white;stroke-width:6.40338612;stroke-linecap:butt;stroke-linejoin:miter;stroke-miterlimit:4;stroke-dasharray:none;stroke-opacity:1"
       id="path3702" />
    <path
       d="M 559.08089,507.6129 L 453.72024,507.6129"
       style="fill:none;fill-opacity:0.75;fill-rule:evenodd;stroke:white;stroke-width:6.40068865;stroke-linecap:butt;stroke-linejoin:miter;stroke-miterlimit:4;stroke-dasharray:none;stroke-opacity:1"
       id="path7257" />
    <path
       d="M 555.37272,548.19042 L 451.09677,548.19042"
       style="fill:none;fill-opacity:0.75;fill-rule:evenodd;stroke:white;stroke-width:6.3676548;stroke-linecap:butt;stroke-linejoin:miter;stroke-miterlimit:4;stroke-dasharray:none;stroke-opacity:1"
       id="path7259" />
  </g>
</svg>

<svg xmlns="http://www.w3.org/2000/svg" version="1.0" width="474.005" height="567.999"><path d="m164.624 203.194 462.57 1.319 1.319 312.636c2.635 116.084-79.064 243.113-233.262 244.04-143.64.865-233.262-110.807-230.627-216.338V203.194z" style="fill:#fff;fill-opacity:1;fill-rule:evenodd;stroke:#000;stroke-width:9.9981184;stroke-linecap:butt;stroke-linejoin:miter;stroke-miterlimit:4;stroke-dasharray:none;stroke-opacity:1" transform="translate(-159.569 -198.195)"/><path d="m556.87 471.405-.624-107.998c-3.118-24.971-2.484-109.775-169.013-109.248-147.186 0-147.81 83.028-148.433 94.265v20.601c-8.731.624-13.097 9.969-13.097 19.977 0 10.612 6.237 14.982 11.85 16.23v44.324s-28.065 4.37-28.065 16.23c0 13.11 8.107 18.729 18.71 18.105h83.571v19.976s-34.302.625-34.925 26.844v53.687h21.828c8.108-1.248 23.7 5.618 23.7 15.607 0 10.612-14.376 18.738-19.958 20.6-7.484 2.498-27.634 15.609-27.441 29.966.623 38.08 34.301 46.82 64.861 44.947h41.162c57.377-3.746 66.109-112.368 66.109-112.368V468.284c12.473 0 18.004 9.387 18.71 19.977.623 9.364-6.964 19.352-18.087 18.728 9.98 0 18.16 11.861 18.087 18.728-.624 9.364-3.742 19.976-16.216 20.6l36.173 49.318h104.776l-34.302-47.445c8.732-.624 15.592-11.236 15.592-21.225 0-11.877-15.592-19.352-15.592-19.352 9.98-1.249 15.592-10.613 14.968-19.352-.622-8.718-4.989-16.231-14.344-16.856z" style="fill:#000;fill-opacity:1;fill-rule:evenodd;stroke:#fff;stroke-width:4.9990592;stroke-linecap:butt;stroke-linejoin:miter;stroke-miterlimit:4;stroke-dasharray:none;stroke-opacity:1" transform="translate(-159.569 -198.195)"/><path d="M314.628 404.629a13.847 13.847 0 1 1-.001 0" transform="matrix(.99933 0 0 1.0003 -90.49 32.041)" style="fill:#fff;fill-opacity:1;stroke:none;stroke-width:5;stroke-miterlimit:4;stroke-dasharray:none;stroke-opacity:1"/><path d="M333.311 477.575v21.106c0 10.553-.839 18.228-10.543 18.468-11.93.303-11.92-.66-17.671.06-4.46.558-11.322 1.259-12.64 13.131-1.318 11.872 0 42.213 0 42.213h17.132c22.404 0 28.993 9.234 28.993 26.382 0 17.15-4.25 18.904-21.085 25.064-11.471 4.197-17.22 10.404-21.086 17.149-4.536 7.91-4.942 23.954 7.907 34.298 13.778 11.09 18.45 10.553 26.357 11.872" style="fill:none;fill-opacity:.75;fill-rule:evenodd;stroke:#fff;stroke-width:4.9990592;stroke-linecap:butt;stroke-linejoin:miter;stroke-miterlimit:4;stroke-dasharray:none;stroke-opacity:1" transform="translate(-159.569 -198.195)"/><path d="M314.628 404.629a13.847 13.847 0 1 1-.001 0" transform="matrix(.99933 0 0 1.0003 -112.234 -177.042)" style="fill:#fff;fill-opacity:1;stroke:none;stroke-width:5;stroke-miterlimit:4;stroke-dasharray:none;stroke-opacity:1"/><path d="M556.222 465.702h-350.81" style="fill:none;fill-opacity:.75;fill-rule:evenodd;stroke:#fff;stroke-width:6.25554371;stroke-linecap:butt;stroke-linejoin:miter;stroke-miterlimit:4;stroke-dasharray:none;stroke-opacity:1" transform="translate(-159.569 -198.195)"/><path d="M314.628 404.629a13.847 13.847 0 1 1-.001 0" transform="matrix(.99933 0 0 1.0003 -70.722 -177.702)" style="fill:#fff;fill-opacity:1;stroke:none;stroke-width:5;stroke-miterlimit:4;stroke-dasharray:none;stroke-opacity:1"/><path d="M235.79 405.022h179.229l-176.594-35.617" style="fill:none;fill-opacity:.75;fill-rule:evenodd;stroke:#fff;stroke-width:4.9990592;stroke-linecap:butt;stroke-linejoin:miter;stroke-miterlimit:4;stroke-dasharray:none;stroke-opacity:1" transform="translate(-159.569 -198.195)"/><path d="M556.04 469.66H450.59" style="fill:none;fill-opacity:.75;fill-rule:evenodd;stroke:#fff;stroke-width:6.40338612;stroke-linecap:butt;stroke-linejoin:miter;stroke-miterlimit:4;stroke-dasharray:none;stroke-opacity:1" transform="translate(-159.569 -198.195)"/><path d="M559.08 507.613H453.72" style="fill:none;fill-opacity:.75;fill-rule:evenodd;stroke:#fff;stroke-width:6.40068865;stroke-linecap:butt;stroke-linejoin:miter;stroke-miterlimit:4;stroke-dasharray:none;stroke-opacity:1" transform="translate(-159.569 -198.195)"/><path d="M555.373 548.19H451.097" style="fill:none;fill-opacity:.75;fill-rule:evenodd;stroke:#fff;stroke-width:6.3676548;stroke-linecap:butt;stroke-linejoin:miter;stroke-miterlimit:4;stroke-dasharray:none;stroke-opacity:1" transform="translate(-159.569 -198.195)"/></svg>
